<?xml version="1.0" encoding="UTF-8"?>
<map version="1.10" tiledversion="1.11.2" orientation="orthogonal" renderorder="right-down" width="100" height="100" tilewidth="32" tileheight="32" infinite="0" nextlayerid="5" nextobjectid="225">
 <tileset firstgid="1" name="cave-tiles" tilewidth="32" tileheight="32" spacing="2" margin="1" tilecount="256" columns="16">
  <image source="../../../tiledmaps/tilesets/cave-tiles-extruded.png" width="544" height="544"/>
  <wangsets>
   <wangset name="Cave Walls" type="corner" tile="-1">
    <wangcolor name="Cave Wall" color="#00007f" tile="-1" probability="1"/>
    <wangtile tileid="0" wangid="0,0,0,1,0,0,0,0"/>
    <wangtile tileid="1" wangid="0,0,0,1,0,1,0,0"/>
    <wangtile tileid="2" wangid="0,0,0,0,0,1,0,0"/>
    <wangtile tileid="16" wangid="0,1,0,1,0,0,0,0"/>
    <wangtile tileid="17" wangid="0,1,0,1,0,1,0,1"/>
    <wangtile tileid="18" wangid="0,0,0,0,0,1,0,1"/>
    <wangtile tileid="19" wangid="0,1,0,0,0,1,0,1"/>
    <wangtile tileid="20" wangid="0,1,0,1,0,0,0,1"/>
    <wangtile tileid="32" wangid="0,1,0,0,0,0,0,0"/>
    <wangtile tileid="33" wangid="0,1,0,0,0,0,0,1"/>
    <wangtile tileid="34" wangid="0,0,0,0,0,0,0,1"/>
    <wangtile tileid="35" wangid="0,0,0,1,0,1,0,1"/>
    <wangtile tileid="36" wangid="0,1,0,1,0,1,0,0"/>
   </wangset>
  </wangsets>
 </tileset>
 <tileset firstgid="257" name="lizard_idle_0" tilewidth="64" tileheight="64" tilecount="1" columns="1">
  <image source="../../../tiledmaps/tilesets/lizard_idle_0.png" width="64" height="64"/>
  <tile id="0">
   <properties>
    <property name="type" value="lizard"/>
   </properties>
  </tile>
 </tileset>
 <layer id="1" name="Terrain" width="100" height="100">
  <data encoding="csv">
18,18,18,18,18,18,18,18,18,18,18,18,18,18,18,18,18,18,18,18,18,18,18,18,18,18,18,18,18,18,18,18,18,18,18,18,18,18,18,18,18,18,18,18,18,18,18,18,18,18,18,18,18,18,18,18,18,18,18,18,18,18,18,18,18,18,18,18,18,18,18,18,18,18,18,18,18,18,18,18,18,18,18,18,18,18,18,18,18,18,18,18,18,18,18,18,18,18,18,18,
18,18,20,34,34,34,34,21,18,18,18,18,18,18,18,18,18,18,18,18,18,18,20,34,34,34,34,34,34,34,34,34,34,34,34,34,34,34,21,18,18,18,18,20,34,34,34,34,34,34,34,34,34,34,34,34,34,34,34,34,34,34,34,34,34,34,34,34,34,34,21,18,18,18,18,18,18,18,18,18,18,18,18,18,18,18,18,18,18,18,20,34,34,21,18,18,18,18,18,18,
18,18,19,0,0,0,0,33,34,34,34,34,21,18,18,18,18,18,18,18,18,20,35,0,0,0,0,0,0,0,0,0,0,0,0,0,0,0,33,21,18,18,20,35,0,0,0,0,0,0,0,0,0,0,0,0,0,0,0,0,0,0,0,0,0,0,0,0,0,0,33,34,34,34,34,34,21,18,18,18,18,18,18,18,18,20,34,34,34,34,35,0,0,33,34,34,34,21,18,18,
18,18,19,0,0,0,0,0,0,0,0,0,33,21,18,18,18,18,18,18,20,35,0,0,0,0,0,0,0,0,0,0,0,0,0,0,0,0,0,17,18,18,19,0,0,0,0,0,0,0,0,0,0,0,0,0,0,0,0,0,0,0,0,0,0,0,0,0,0,0,0,0,0,0,0,0,33,34,21,18,18,18,20,34,34,35,0,0,0,0,0,0,0,0,0,0,0,33,21,18,
18,18,19,0,0,0,0,0,0,0,0,0,0,17,18,18,18,18,18,18,19,0,0,0,0,0,0,0,0,0,0,0,0,0,0,0,0,0,0,17,18,18,19,0,0,0,0,0,0,0,0,0,0,0,0,0,0,0,0,0,0,0,0,0,0,0,0,0,0,0,0,0,0,0,0,0,0,0,17,18,18,18,19,0,0,0,0,0,0,0,0,0,0,0,0,0,0,0,17,18,
18,18,19,0,0,0,0,0,0,0,0,0,0,33,21,18,18,18,18,18,19,0,0,0,0,0,0,0,0,0,0,0,0,0,0,0,0,0,0,17,18,20,35,0,0,0,0,0,0,0,0,0,0,0,0,0,0,0,0,0,0,0,0,0,0,0,0,0,0,0,0,0,0,0,0,0,0,0,33,21,18,20,35,0,0,0,0,0,0,0,0,0,0,0,0,0,0,0,17,18,
18,18,19,0,0,0,0,0,0,0,0,0,0,0,17,18,18,18,18,18,19,0,0,0,0,0,0,0,0,0,0,0,0,0,0,0,0,0,0,17,18,19,0,0,0,0,0,0,0,0,0,0,0,0,0,0,0,0,0,0,0,0,0,0,0,0,0,0,0,0,0,0,0,0,0,0,0,0,0,17,18,19,0,0,0,0,0,0,0,0,0,0,0,0,0,0,0,0,17,18,
18,18,36,3,0,0,0,0,0,0,0,0,0,0,17,18,18,18,18,18,19,0,0,0,0,0,0,0,0,0,0,0,0,0,0,0,0,0,0,17,18,19,0,0,0,0,0,0,0,0,0,0,0,0,0,0,0,0,0,0,0,0,0,0,0,0,0,0,0,0,0,0,0,0,0,0,0,0,0,17,20,35,0,0,0,0,0,0,0,0,0,0,0,0,0,0,0,0,17,18,
18,18,18,19,0,0,0,0,0,0,0,0,0,0,17,18,18,18,18,18,19,0,0,0,0,0,0,0,0,0,0,0,0,0,0,0,0,0,0,33,21,19,0,0,0,0,0,0,0,0,0,0,0,0,0,0,0,0,0,0,0,0,0,0,0,0,0,0,0,0,0,0,0,0,0,0,0,0,0,17,19,0,0,0,0,0,0,0,0,0,0,0,0,0,0,0,0,0,17,18,
18,18,18,36,2,2,2,3,0,0,0,0,0,0,33,21,18,18,18,18,19,0,0,0,0,0,0,0,0,0,0,0,0,0,0,0,0,0,0,0,17,19,0,0,0,0,0,0,0,0,0,0,0,0,0,0,0,0,0,0,0,0,0,0,0,0,0,0,0,0,0,0,0,0,0,0,0,0,0,33,35,0,0,0,0,0,0,0,0,0,0,0,0,0,0,0,0,1,37,18,
18,18,18,18,18,20,34,35,0,0,0,0,0,0,0,17,18,18,18,18,19,0,0,0,0,0,0,0,0,0,0,0,0,0,0,0,0,0,0,0,17,19,0,0,0,0,0,0,0,0,0,0,0,0,0,0,0,0,0,0,1,3,0,0,0,0,0,0,0,0,0,0,0,0,0,0,0,0,0,0,0,0,0,0,0,0,0,0,0,0,0,0,0,0,0,0,0,17,18,18,
18,18,18,20,34,35,0,0,0,0,0,0,0,0,0,17,18,18,18,18,19,0,0,0,0,0,0,0,0,0,0,0,0,0,0,0,0,0,0,0,17,19,0,0,0,0,0,0,0,0,0,0,0,0,0,0,0,0,0,1,37,19,0,0,0,0,0,0,0,0,0,0,0,0,0,0,0,0,0,0,0,0,0,0,0,0,0,0,0,0,0,0,0,0,0,0,0,17,18,18,
18,18,20,35,0,0,0,0,0,0,0,0,0,0,0,17,18,18,18,18,19,0,0,0,0,0,0,0,0,0,0,0,0,0,0,0,0,0,0,0,33,35,0,0,0,0,0,0,0,0,0,0,0,0,0,0,0,0,0,17,18,19,0,0,0,0,0,0,0,0,0,0,0,0,0,0,0,0,0,0,0,0,0,0,0,0,0,0,0,0,0,0,0,0,0,0,1,37,18,18,
18,18,19,0,0,0,0,0,0,0,0,0,0,0,0,33,21,18,18,18,19,0,0,0,0,0,0,0,0,0,0,0,0,0,0,0,0,0,0,0,0,0,0,0,0,0,0,0,0,0,0,0,0,0,0,0,0,0,0,17,18,19,0,0,0,0,0,0,0,0,0,0,0,0,0,0,0,0,0,0,0,0,0,0,0,0,0,0,0,0,0,0,0,0,0,0,17,18,18,18,
18,20,35,0,0,0,0,0,0,0,0,0,0,0,0,0,17,18,18,18,19,0,0,0,0,0,0,0,0,0,0,0,0,0,0,0,0,0,0,0,0,0,0,0,0,0,0,0,0,0,0,0,0,0,0,0,0,0,0,17,18,19,0,0,0,0,0,0,0,0,0,0,0,0,0,0,0,0,0,0,0,0,0,0,0,0,0,0,0,0,0,0,0,0,0,1,37,18,18,18,
18,19,0,0,0,0,0,0,0,0,0,0,0,0,0,0,17,18,18,18,19,0,0,0,0,0,0,0,0,0,0,0,0,0,0,0,0,0,0,0,0,0,0,0,0,0,0,0,0,0,0,0,0,0,0,0,0,0,0,17,18,19,0,0,0,0,0,0,0,0,0,0,0,0,0,0,0,0,0,0,0,0,0,0,0,0,0,0,0,0,0,0,0,0,1,37,18,18,18,18,
18,19,0,0,0,0,0,0,0,0,0,0,0,0,0,0,17,18,18,20,35,0,0,0,0,0,0,0,0,0,0,0,0,0,0,0,0,0,0,0,0,0,0,0,0,0,0,0,0,0,0,0,0,0,0,0,0,0,1,37,18,19,0,0,0,0,0,0,0,0,0,0,0,0,0,0,0,0,0,0,0,0,0,0,0,0,0,0,0,0,0,1,2,2,37,18,18,18,18,18,
18,19,0,0,0,0,0,0,0,0,0,0,0,0,0,0,17,18,18,19,0,0,0,0,0,0,0,0,0,0,0,0,0,0,0,0,0,0,0,0,0,0,0,0,0,0,0,0,0,0,0,0,0,0,0,0,0,1,37,18,18,19,0,0,0,0,0,0,0,0,0,0,0,0,0,0,0,0,0,0,0,0,0,0,0,0,0,0,0,0,0,33,34,34,34,34,21,18,18,18,
18,19,0,0,0,0,0,0,0,0,0,0,0,0,0,0,33,21,20,35,0,0,0,0,0,0,0,0,0,0,0,0,0,0,0,0,0,0,0,0,0,0,0,0,0,0,0,0,0,0,0,0,0,0,0,0,0,17,18,18,18,19,0,0,0,0,0,0,0,0,0,0,0,0,0,0,0,0,0,0,0,0,0,0,0,0,0,0,0,0,0,0,0,0,0,0,33,21,18,18,
18,19,0,0,0,0,0,0,0,0,0,0,0,0,0,0,0,17,19,0,0,0,0,0,0,0,0,0,0,0,0,0,0,0,0,0,0,0,0,0,0,0,0,0,0,0,0,0,0,0,0,0,0,0,0,0,0,17,18,18,18,36,3,0,0,0,0,0,0,0,0,0,0,0,0,0,0,0,0,0,0,0,0,0,0,0,0,0,0,0,0,0,0,0,0,0,0,17,18,18,
18,19,0,0,0,0,0,0,0,0,0,0,0,0,0,0,0,17,19,0,0,0,0,0,0,0,0,0,0,0,0,0,0,0,0,0,0,0,0,0,0,0,0,0,0,0,0,0,0,0,0,0,0,1,2,2,2,37,18,18,18,18,19,0,0,0,0,0,0,0,0,0,0,0,0,0,0,0,0,0,0,0,0,0,0,0,0,0,0,0,0,0,0,0,0,0,0,17,18,18,
18,19,0,0,0,0,0,0,0,0,0,0,0,0,0,0,0,33,35,0,0,0,0,0,0,0,1,3,0,0,0,0,0,0,0,0,0,0,0,0,0,0,0,0,0,0,0,0,0,0,0,0,0,17,18,18,18,18,18,18,18,18,19,0,0,0,0,0,0,0,0,0,0,0,0,0,0,0,0,0,0,0,0,0,0,0,0,0,0,0,0,0,0,0,0,0,0,33,21,18,
18,19,0,0,0,0,0,0,0,0,0,0,0,0,0,0,0,0,0,0,0,0,0,0,0,0,17,19,0,0,0,0,0,0,0,0,0,0,0,0,0,0,0,0,0,0,0,0,0,0,0,0,1,37,18,18,18,18,18,18,18,18,36,2,3,0,0,0,0,0,0,0,0,0,0,0,0,0,0,0,0,0,0,0,0,0,0,0,0,0,0,0,0,0,0,0,0,0,17,18,
18,19,0,0,0,0,0,0,0,0,0,0,0,0,0,0,0,0,0,0,0,0,0,0,0,0,17,19,0,0,0,0,0,0,0,0,0,0,0,0,0,0,0,0,0,0,0,0,0,1,2,2,37,18,18,18,18,18,18,18,18,18,18,18,19,0,0,0,0,0,0,0,0,0,0,0,0,0,0,0,0,0,0,0,0,0,0,0,0,0,0,0,0,0,0,0,0,0,17,18,
18,19,0,0,0,0,0,0,0,0,0,0,0,0,0,0,0,0,0,0,0,0,0,0,0,0,17,19,0,0,0,0,0,0,0,0,0,0,0,0,0,0,0,0,0,1,2,2,2,37,18,18,18,18,18,18,18,18,18,18,18,18,18,18,36,3,0,0,0,0,0,0,0,0,0,0,0,0,0,0,0,0,0,0,0,0,0,0,0,0,0,0,0,0,0,0,0,0,17,18,
18,36,3,0,0,0,0,0,0,0,0,0,0,0,0,0,0,0,0,0,0,0,0,0,0,0,17,19,0,0,0,0,0,0,0,0,0,0,0,0,0,0,0,1,2,37,18,18,18,18,18,18,18,18,18,18,18,18,18,18,18,18,18,18,18,36,2,2,2,2,3,0,0,0,0,0,0,0,0,0,0,0,0,0,0,0,0,0,0,0,0,0,0,0,0,0,0,0,17,18,
18,18,19,0,0,0,0,0,0,0,0,0,0,0,0,0,0,0,0,0,0,0,0,0,0,0,17,36,3,0,0,0,0,0,0,0,0,0,0,0,0,1,2,37,18,18,18,18,18,18,18,18,18,18,18,18,18,18,18,18,18,18,18,18,18,18,18,20,34,34,35,0,0,0,0,0,0,0,0,0,0,0,0,0,0,0,0,0,0,0,0,0,0,0,0,0,0,0,17,18,
18,18,36,3,0,0,0,0,0,0,0,0,0,0,0,0,0,0,0,0,0,0,0,0,0,1,37,18,19,0,0,0,0,0,0,0,0,0,0,1,2,37,18,18,18,18,18,18,18,18,18,18,18,18,18,18,18,18,18,18,18,18,18,18,18,18,20,35,0,0,0,0,0,0,0,0,0,0,0,0,0,0,0,0,0,0,0,0,0,0,0,0,0,0,0,0,0,0,17,18,
18,18,18,19,0,0,0,0,0,0,0,0,0,0,0,0,0,0,0,0,0,0,0,0,0,17,18,18,19,0,0,0,0,0,0,0,0,1,2,37,18,18,18,18,18,18,18,18,18,18,18,18,18,18,18,18,18,18,18,18,18,18,18,18,20,34,35,0,0,0,0,0,0,0,0,0,0,0,0,0,0,0,0,0,0,0,0,0,0,0,0,0,0,0,0,0,0,0,17,18,
18,18,18,19,0,0,0,0,0,0,0,0,0,0,0,0,0,0,0,0,0,0,0,0,1,37,18,18,36,3,0,0,0,0,0,1,2,37,18,18,18,18,18,18,18,18,18,18,18,18,18,18,18,18,18,18,18,18,18,18,18,18,18,20,35,0,0,0,0,0,0,0,0,0,0,0,0,0,0,0,0,0,0,0,0,0,0,0,0,0,0,0,0,0,0,0,0,0,17,18,
18,18,18,36,3,0,0,0,0,0,0,0,0,0,0,0,0,0,0,0,0,0,0,0,17,18,18,18,18,19,0,0,0,1,2,37,18,18,18,18,18,18,18,18,18,18,18,18,18,18,18,18,18,18,18,18,18,18,18,18,18,18,20,35,0,0,0,0,0,0,0,0,0,0,0,0,0,0,0,0,0,0,0,0,0,0,0,0,0,0,0,0,0,0,0,0,0,0,17,18,
18,18,18,18,36,3,0,0,0,0,0,0,0,0,0,0,0,0,0,0,0,0,0,0,17,18,18,18,18,36,2,2,2,37,18,18,18,18,18,18,18,18,18,18,18,18,18,18,18,18,18,18,18,18,18,18,18,18,18,18,18,18,19,0,0,0,0,0,0,0,0,0,0,0,0,0,0,0,0,0,0,0,0,0,0,0,0,0,0,0,0,0,0,0,0,0,0,0,17,18,
18,18,18,18,18,36,3,0,0,0,0,0,0,0,0,0,0,0,0,0,0,0,0,1,37,18,18,18,18,18,18,18,18,18,18,18,18,18,18,18,18,18,18,18,18,18,18,18,18,18,18,18,18,18,18,18,18,18,18,18,18,18,19,0,0,0,0,0,0,0,0,0,0,0,0,0,0,0,0,0,0,0,0,0,0,0,0,0,0,0,0,0,0,0,0,0,0,1,37,18,
18,18,18,18,18,18,36,3,0,0,0,0,0,0,0,0,0,0,0,0,0,0,1,37,18,18,18,18,18,18,18,18,18,18,18,18,18,18,20,34,34,34,34,34,34,34,21,18,18,18,18,18,18,18,18,18,18,18,18,18,18,18,19,0,0,0,0,0,0,0,0,0,0,0,0,0,0,0,0,0,0,0,0,0,0,0,0,0,0,0,0,0,0,0,0,0,1,37,18,18,
18,18,18,18,18,18,18,36,2,2,2,2,2,3,0,0,0,1,2,2,2,2,37,18,18,18,18,18,18,18,18,18,18,18,18,20,34,34,35,0,0,0,0,0,0,0,33,34,21,18,18,18,18,18,18,18,18,18,18,18,18,20,35,0,0,0,0,0,0,0,0,0,0,0,0,0,0,0,0,0,0,0,0,0,0,0,0,0,0,0,0,0,0,0,1,2,37,18,18,18,
18,18,18,18,18,18,18,18,18,18,18,18,18,36,2,2,2,37,18,18,18,18,18,18,18,18,18,18,18,18,18,18,18,18,18,19,0,0,0,0,0,0,0,0,0,0,0,0,33,34,34,21,18,18,18,18,18,18,18,18,18,36,3,0,0,0,0,0,0,0,0,0,0,0,0,0,0,0,0,0,0,0,0,0,0,0,0,0,0,0,0,1,2,2,37,18,18,18,18,18,
18,18,18,18,18,18,18,18,18,18,18,18,18,18,18,18,18,18,18,18,18,18,18,18,18,18,18,18,18,18,18,18,18,20,34,35,0,0,0,0,0,0,0,0,0,0,0,0,0,0,0,33,34,21,18,18,18,18,18,18,18,18,36,2,3,0,0,0,0,0,0,0,0,0,0,0,0,0,0,0,0,0,0,0,0,0,0,0,0,0,1,37,18,18,18,18,18,18,18,18,
18,18,18,18,18,18,18,18,18,18,18,18,18,18,18,18,18,18,18,18,18,18,18,18,18,18,18,18,18,18,18,18,18,36,3,0,0,0,0,0,0,0,0,0,0,0,0,0,0,0,0,0,0,33,21,18,18,18,18,18,18,20,34,34,35,0,0,0,0,0,0,0,0,0,0,0,0,0,0,0,0,0,0,0,0,0,0,0,0,1,37,20,34,34,34,34,34,34,21,18,
18,18,18,18,18,18,18,18,18,18,18,18,18,18,18,18,18,18,18,18,18,18,18,18,18,18,18,18,18,18,18,18,18,20,35,0,0,0,0,0,0,0,0,0,0,0,0,0,0,0,0,0,0,0,33,34,34,34,34,34,34,35,0,0,0,0,0,0,0,0,0,0,0,0,0,0,0,0,0,0,0,0,0,0,0,0,0,0,0,33,34,35,0,0,0,0,0,0,17,18,
18,18,18,18,18,18,18,18,18,18,18,18,18,18,18,18,18,18,18,18,18,18,18,18,18,18,18,18,18,18,18,18,18,19,0,0,0,0,0,0,0,0,0,0,0,0,0,0,0,0,0,0,0,0,0,0,0,0,0,0,0,0,0,0,0,0,0,0,0,0,0,0,0,0,0,0,0,0,0,0,0,0,0,0,0,0,0,0,0,0,0,0,0,0,0,0,0,0,17,18,
18,18,18,18,18,18,18,18,18,18,18,18,18,18,18,18,18,18,18,18,18,18,18,18,18,18,18,18,18,18,18,18,20,35,0,0,0,0,0,0,0,0,0,0,0,0,0,0,0,0,0,0,0,0,0,0,0,0,0,0,0,0,0,0,0,0,0,0,0,0,0,0,0,0,0,0,0,0,0,0,0,0,0,0,0,0,0,0,0,0,0,0,0,0,0,0,0,0,17,18,
18,18,18,18,18,18,18,18,18,18,18,18,18,18,18,18,18,18,18,18,18,18,18,18,18,18,18,18,18,18,18,18,19,0,0,0,0,0,0,0,1,2,2,2,2,3,0,0,0,0,0,0,0,0,0,0,0,0,0,0,0,0,0,0,0,0,0,0,0,0,0,0,0,0,0,0,0,0,0,0,0,0,0,0,0,0,0,0,0,0,0,0,0,0,0,0,0,0,17,18,
18,18,18,18,18,18,18,18,18,18,18,18,18,18,18,18,18,18,18,18,18,18,18,18,18,18,18,18,18,18,18,20,35,0,0,0,0,0,0,1,37,18,18,18,18,19,0,0,0,0,0,0,0,0,0,0,0,0,0,0,0,0,0,0,0,0,0,0,0,0,0,0,0,0,0,0,0,0,0,0,0,0,0,0,0,0,0,0,0,0,0,0,0,0,0,0,0,0,17,18,
18,18,18,18,18,18,18,18,18,18,20,34,34,34,34,34,34,34,34,34,34,34,34,21,18,18,18,18,18,18,20,35,0,0,0,0,0,1,2,37,18,18,18,20,34,35,0,0,0,0,0,0,0,0,0,0,0,0,0,0,0,0,0,0,0,0,0,0,0,0,0,0,0,0,0,0,0,0,0,0,0,0,0,0,0,0,0,0,0,0,0,0,0,0,0,0,0,0,17,18,
18,18,18,18,18,18,18,18,18,20,35,0,0,0,0,0,0,0,0,0,0,0,0,33,34,34,34,34,34,34,35,0,0,0,0,0,0,17,18,18,18,18,20,35,0,0,0,0,0,0,0,0,0,0,0,0,0,0,0,0,0,0,0,0,0,0,0,0,0,0,0,0,0,0,0,0,0,0,0,0,0,0,0,0,0,0,0,0,0,0,0,0,0,0,0,0,0,0,17,18,
18,18,18,18,18,18,18,18,20,35,0,0,0,0,0,0,0,0,0,0,0,0,0,0,0,0,0,0,0,0,0,0,0,0,0,0,0,33,34,34,34,34,35,0,0,0,0,0,0,0,0,0,0,0,0,0,0,0,0,0,0,0,0,0,0,0,0,0,0,0,0,0,0,0,0,0,0,0,0,0,0,0,0,0,0,0,0,0,0,0,0,0,0,0,0,0,0,0,17,18,
18,18,18,18,18,18,18,18,19,0,0,0,0,0,0,0,0,0,0,0,0,0,0,0,0,0,0,0,0,0,0,0,0,0,0,0,0,0,0,0,0,0,0,0,0,0,0,0,0,0,0,0,0,0,0,0,0,0,0,0,0,0,0,0,0,0,0,0,0,0,0,0,0,0,0,0,0,0,0,0,0,0,0,0,0,0,0,0,0,0,0,0,0,0,0,0,0,0,17,18,
18,18,18,18,18,18,18,18,19,0,0,0,0,0,0,0,0,0,0,0,0,0,0,0,0,0,0,0,0,0,0,0,0,0,0,0,0,0,0,0,0,0,0,0,0,0,0,0,0,0,0,0,0,0,0,0,0,0,0,0,0,0,0,0,0,0,0,0,0,0,0,0,0,0,0,0,0,0,0,0,0,0,0,0,0,0,0,0,0,0,0,0,0,0,0,0,0,0,17,18,
18,18,18,18,18,18,18,18,19,0,0,0,0,0,0,0,0,0,0,0,0,0,0,0,0,0,0,0,0,0,0,0,0,0,0,0,0,0,0,0,0,0,0,0,0,0,0,0,0,0,0,0,0,0,0,0,0,0,0,0,0,0,0,0,0,0,0,0,0,0,0,0,0,0,0,0,0,0,0,0,0,0,0,0,0,0,0,0,0,0,0,0,0,0,0,0,0,0,17,18,
18,18,18,18,18,18,18,18,36,3,0,0,0,0,0,0,0,0,0,0,0,0,0,0,0,0,0,0,0,0,0,0,0,0,0,0,0,0,0,0,0,0,0,0,0,0,0,0,0,1,2,2,2,2,3,0,0,0,0,0,0,0,0,0,0,0,0,0,0,0,0,0,0,0,0,0,0,0,0,0,0,0,0,0,0,0,0,0,0,0,0,0,0,0,0,0,0,0,17,18,
18,18,18,18,18,18,18,18,18,36,2,3,0,0,0,0,0,0,0,0,0,0,0,0,0,0,0,0,0,0,0,0,0,0,0,0,0,0,0,0,0,0,0,0,0,1,2,2,2,37,18,18,18,18,36,2,3,0,0,0,0,0,0,0,0,0,0,0,0,0,0,0,0,0,0,0,0,0,0,0,0,0,0,0,0,0,0,0,0,0,0,0,0,0,1,2,2,2,37,18,
18,18,18,18,18,18,18,18,18,18,18,19,0,0,0,0,0,0,0,0,0,0,0,0,0,0,0,0,0,0,0,0,0,0,0,0,0,0,0,0,0,0,0,0,0,17,18,18,18,18,18,18,18,18,18,18,19,0,0,0,0,0,0,0,0,0,0,0,0,0,0,0,0,0,0,0,0,0,0,0,0,0,0,0,0,0,0,0,0,0,0,1,2,2,37,18,18,18,18,18,
18,18,18,18,18,18,18,18,18,18,18,36,2,2,2,3,0,0,0,0,0,0,0,0,0,0,0,0,0,0,0,0,0,0,0,0,0,0,0,0,0,0,0,0,1,37,18,18,18,18,18,18,18,18,18,18,19,0,0,0,0,0,0,0,0,0,0,0,0,0,0,0,0,0,0,0,0,0,0,0,0,0,0,0,0,0,0,0,0,0,0,17,18,18,18,18,18,18,18,18,
18,18,18,18,18,18,18,18,18,18,18,18,18,18,18,36,2,2,2,3,0,0,0,0,0,0,0,0,0,0,0,0,0,0,0,0,0,0,0,0,0,0,1,2,37,18,18,18,18,18,18,18,18,18,18,18,19,0,0,0,0,0,0,0,0,0,0,0,0,0,0,0,0,0,0,0,0,0,0,0,0,0,0,0,0,0,0,0,0,0,0,33,34,34,21,18,18,18,18,18,
18,18,18,18,18,18,18,18,18,18,18,18,18,18,18,18,18,18,18,36,3,0,0,0,0,0,0,0,0,0,0,0,0,0,0,0,0,0,0,0,0,1,37,18,18,18,18,18,18,18,18,18,18,18,18,18,19,0,0,0,0,0,1,2,2,2,2,3,0,0,0,0,0,0,0,0,0,0,0,0,0,0,0,0,0,0,0,0,0,0,0,0,0,0,33,34,34,21,18,18,
18,18,18,18,18,18,18,18,18,18,18,18,18,18,18,18,18,18,18,18,19,0,0,0,0,0,0,0,0,0,0,0,0,0,0,0,0,0,0,1,2,37,18,18,18,18,18,18,18,18,18,18,18,18,18,18,19,0,0,0,0,0,33,21,18,18,18,36,2,2,3,0,0,0,0,0,0,0,0,0,0,0,0,0,0,0,0,0,0,0,0,0,0,0,0,0,0,17,18,18,
18,18,18,18,18,18,18,18,18,18,18,18,18,18,18,18,18,18,18,18,19,0,0,0,0,0,0,0,0,0,0,0,0,0,0,0,0,1,2,37,18,18,18,18,18,18,18,18,18,18,18,18,18,18,18,18,19,0,0,0,0,0,0,33,34,21,18,18,18,18,19,0,0,0,0,0,0,0,0,0,0,0,0,0,0,0,0,0,0,0,0,0,0,0,0,0,0,17,18,18,
18,18,18,18,18,18,18,18,18,18,18,18,18,18,18,18,18,18,18,18,36,2,2,2,2,2,2,2,2,2,3,0,0,0,1,2,2,37,18,18,18,18,18,18,18,18,18,18,18,18,18,18,18,18,18,18,19,0,0,0,0,0,0,0,0,33,34,34,34,34,35,0,0,0,0,0,0,0,0,0,0,0,0,0,0,0,0,0,0,0,0,0,0,0,0,0,0,17,18,18,
18,18,18,18,18,18,18,18,18,18,18,18,18,18,18,18,18,18,18,18,18,18,18,18,18,18,18,18,18,18,36,2,2,2,37,18,18,18,18,18,18,18,18,18,18,18,18,18,18,18,18,18,18,18,18,20,35,0,0,0,0,0,0,0,0,0,0,0,0,0,0,0,0,0,0,0,0,0,0,0,0,0,0,0,0,0,0,0,0,0,0,0,0,0,0,0,0,33,21,18,
18,18,18,18,18,18,18,18,18,18,18,18,18,18,18,18,18,18,18,18,18,18,18,18,18,18,18,18,18,18,18,18,18,18,18,18,18,18,18,18,18,18,18,18,18,18,18,18,18,18,18,18,18,18,20,35,0,0,0,0,0,0,0,0,0,0,0,0,0,0,0,0,0,0,0,0,0,0,0,0,0,0,0,0,0,0,0,0,0,0,0,0,0,0,0,0,0,0,17,18,
18,18,18,18,18,18,20,34,34,34,21,18,18,18,18,18,18,18,18,18,18,18,18,18,18,18,18,18,18,18,18,18,18,18,18,18,18,18,18,18,18,18,18,18,18,18,18,18,18,18,18,18,18,18,19,0,0,0,0,0,0,0,0,0,0,0,0,0,0,0,0,0,0,0,0,0,0,0,0,0,0,0,0,0,0,0,0,0,0,0,0,0,0,0,0,0,0,0,17,18,
18,18,18,18,18,20,35,0,0,0,33,34,34,34,21,18,18,18,20,34,34,34,34,21,18,18,18,18,18,18,18,18,18,18,18,18,18,18,18,18,18,18,18,18,18,20,34,34,21,18,18,20,34,34,35,0,0,0,0,0,0,0,0,0,0,0,0,0,0,0,0,0,0,0,0,0,0,0,0,0,0,0,0,0,0,0,0,0,0,0,0,0,0,0,0,0,0,0,17,18,
18,18,18,18,18,19,0,0,0,0,0,0,0,0,33,21,18,18,19,0,0,0,0,33,34,34,34,34,34,34,34,21,18,18,18,18,18,18,18,18,18,20,34,34,34,35,0,0,17,18,20,35,0,0,0,0,0,0,0,0,0,0,0,0,0,0,0,0,0,0,0,0,0,0,0,0,0,0,0,0,0,0,0,0,0,0,0,0,0,0,0,0,0,0,0,0,0,0,17,18,
18,18,18,18,20,35,0,0,0,0,0,0,0,0,0,33,34,34,35,0,0,0,0,0,0,0,0,0,0,0,0,33,34,34,21,18,18,18,18,20,34,35,0,0,0,0,0,0,33,34,35,0,0,0,0,0,0,0,0,0,0,0,0,0,0,0,0,0,0,0,0,0,0,0,0,0,0,0,0,0,0,0,0,0,0,0,0,0,0,0,0,0,0,0,0,0,0,0,17,18,
18,18,18,18,19,0,0,0,0,0,0,0,0,0,0,0,0,0,0,0,0,0,0,0,0,0,0,0,0,0,0,0,0,0,33,21,18,18,20,35,0,0,0,0,0,0,0,0,0,0,0,0,0,0,0,0,0,0,0,0,0,0,0,0,0,0,0,0,0,0,0,0,0,0,0,0,0,0,0,0,0,0,0,0,0,0,0,0,0,0,0,0,0,0,0,0,0,0,17,18,
18,18,18,18,19,0,0,0,0,0,0,0,0,0,0,0,0,0,0,0,0,0,0,0,0,0,0,0,0,0,0,0,0,0,0,17,18,18,19,0,0,0,0,0,0,0,0,0,0,0,0,0,0,0,0,0,0,0,0,0,0,0,0,0,0,0,0,0,0,0,0,0,0,0,0,0,0,0,0,0,0,0,0,0,0,0,0,0,0,0,0,0,0,0,0,0,0,0,17,18,
18,18,18,18,19,0,0,0,0,0,0,0,0,0,0,0,0,0,0,0,0,0,0,0,0,0,0,0,0,0,0,0,0,0,0,17,18,18,19,0,0,0,0,0,0,0,0,0,0,0,0,0,0,0,0,0,0,0,0,0,0,0,0,0,0,0,0,0,0,0,0,0,0,0,0,0,0,0,0,0,0,0,0,0,0,0,0,0,0,0,0,0,0,0,0,0,0,0,17,18,
18,18,18,18,19,0,0,0,0,0,0,0,0,0,0,0,0,0,0,0,0,0,0,0,0,0,0,0,0,0,0,0,0,0,0,17,18,18,19,0,0,0,0,0,0,0,0,0,0,0,0,0,0,0,0,0,0,0,0,0,0,0,0,0,0,0,0,0,0,0,0,0,0,0,0,0,0,0,0,0,0,0,0,0,0,0,0,0,0,1,2,2,2,3,0,0,0,0,17,18,
18,18,18,18,19,0,0,0,0,0,0,0,0,0,0,0,0,0,0,0,0,0,0,0,0,0,0,0,0,0,0,0,0,0,0,33,21,18,36,2,2,2,2,2,2,3,0,0,0,0,0,0,0,0,0,0,0,0,0,0,0,0,0,0,0,0,0,0,0,0,0,0,0,0,0,0,0,0,0,0,0,0,0,0,0,0,1,2,2,37,20,34,34,35,0,0,0,0,17,18,
18,18,18,18,19,0,0,0,0,0,0,0,0,0,0,0,0,0,0,0,0,0,0,0,0,0,0,0,0,0,0,0,0,0,0,0,33,34,34,21,18,18,18,20,34,35,0,0,0,0,0,0,0,0,0,0,0,0,0,0,0,0,0,0,0,0,0,0,0,0,0,0,0,0,0,0,0,0,0,0,0,0,0,1,2,2,37,18,18,20,35,0,0,0,0,0,0,0,17,18,
18,18,18,18,36,2,2,2,3,0,0,0,0,0,0,0,0,0,0,0,0,0,0,0,0,0,0,0,0,0,0,0,0,0,0,0,0,0,0,33,34,34,34,35,0,0,0,0,0,0,0,0,0,0,0,0,0,0,0,0,0,0,0,0,0,0,0,0,0,0,0,0,0,0,0,0,0,0,0,0,0,0,0,33,34,34,34,34,34,35,0,0,0,0,0,0,0,0,17,18,
18,18,18,20,34,34,34,34,35,0,0,0,0,0,0,0,0,0,0,0,0,0,0,0,0,0,0,0,0,0,0,0,0,0,0,0,0,0,0,0,0,0,0,0,0,0,0,0,0,0,0,0,0,0,0,0,0,0,0,0,0,0,0,0,0,0,0,0,0,0,0,0,0,0,0,0,0,0,0,0,0,0,0,0,0,0,0,0,0,0,0,0,0,0,0,0,0,1,37,18,
18,18,18,19,0,0,0,0,0,0,0,0,0,0,0,0,0,0,0,0,0,0,0,0,0,0,0,0,0,0,0,0,0,0,0,0,0,0,0,0,0,0,0,0,0,0,0,0,0,0,0,0,0,0,0,0,0,0,0,0,0,0,0,0,0,0,0,0,0,0,0,0,0,0,0,0,0,0,0,0,0,0,0,0,0,0,0,0,0,0,0,0,0,0,0,0,1,37,18,18,
18,18,18,19,0,0,0,0,0,0,0,0,0,0,0,0,0,0,0,0,0,0,0,0,0,1,2,2,2,2,3,0,0,0,0,0,0,0,0,0,0,0,0,0,0,0,0,0,0,0,0,0,0,0,0,0,0,0,0,0,0,0,0,0,0,0,0,0,0,0,0,0,0,0,0,0,0,0,0,0,0,0,0,0,0,0,0,0,0,0,0,0,0,0,0,1,37,18,18,18,
18,18,18,19,0,0,0,0,0,0,0,0,0,0,0,0,0,0,0,0,0,0,0,0,0,33,34,34,34,34,35,0,0,0,0,0,0,0,0,0,0,0,0,0,0,0,0,0,0,0,0,0,0,0,0,0,0,0,0,0,0,0,0,0,0,0,0,0,0,0,0,0,0,0,0,0,0,0,0,0,0,0,0,0,0,0,0,0,0,0,0,0,0,0,0,17,18,18,18,18,
18,18,18,19,0,0,0,0,0,0,0,0,0,0,0,0,0,0,0,0,0,0,0,0,0,0,0,0,0,0,0,0,0,0,0,0,0,0,0,0,0,0,0,0,0,0,0,0,0,0,0,0,0,0,0,0,0,0,0,0,0,0,0,0,0,0,0,0,0,0,0,0,0,0,0,0,0,0,0,0,0,0,0,0,0,0,0,0,0,0,0,0,1,2,2,37,18,18,18,18,
18,18,18,19,0,0,0,0,0,0,0,0,0,0,0,0,0,0,0,0,0,0,0,0,0,0,0,0,0,0,0,0,0,0,0,0,0,0,0,0,0,0,0,0,0,0,0,0,0,0,0,0,0,0,0,0,0,0,0,0,0,0,0,0,0,0,0,0,0,0,0,0,0,0,0,0,0,0,0,0,0,0,0,0,0,0,0,0,0,0,0,0,17,18,18,18,18,18,18,18,
18,18,18,19,0,0,0,0,0,0,0,0,0,0,0,0,0,0,0,0,0,0,0,0,0,0,0,0,0,0,0,0,0,0,0,0,0,0,0,0,0,0,0,0,0,0,0,0,0,0,0,0,0,0,0,0,0,0,0,0,0,0,0,0,0,0,0,0,0,0,0,0,0,0,0,0,0,0,0,0,0,0,0,0,0,0,0,0,0,0,0,0,33,34,34,21,18,18,18,18,
18,18,18,19,0,0,0,0,0,0,0,0,0,0,0,0,0,0,0,0,0,0,0,0,0,0,0,0,0,0,0,0,0,0,0,0,0,0,0,0,0,0,0,0,0,0,0,0,0,0,0,0,0,0,0,0,0,0,0,0,0,0,0,0,0,0,0,0,0,0,0,0,0,0,0,0,0,0,0,0,0,0,0,0,0,0,0,0,0,0,0,0,0,0,0,33,21,18,18,18,
18,18,18,19,0,0,0,0,0,0,0,1,2,2,3,0,0,0,0,0,0,0,0,0,0,0,0,0,0,0,0,0,0,0,0,0,0,0,0,0,0,0,0,0,0,0,0,0,0,0,0,0,0,0,0,0,0,0,0,0,0,0,0,0,0,0,0,0,0,0,0,0,0,0,0,0,0,0,0,0,0,0,0,0,0,0,0,0,0,0,0,0,0,0,0,0,33,21,18,18,
18,18,18,19,0,0,0,0,0,0,1,37,18,18,36,3,0,0,0,0,0,0,0,0,0,0,0,0,0,0,0,0,0,0,0,0,0,0,0,0,0,0,0,0,0,0,0,0,0,0,0,0,0,0,0,0,0,0,0,0,0,0,0,0,0,0,0,0,0,0,0,0,0,0,0,0,0,0,0,0,0,0,0,0,0,0,0,0,0,0,0,0,0,0,0,0,0,17,18,18,
18,18,20,35,0,0,0,0,0,0,33,34,34,34,34,35,0,0,0,0,0,0,0,0,0,0,0,0,0,0,0,0,0,0,0,0,0,0,0,0,0,0,0,0,0,0,0,0,0,0,0,0,0,0,0,0,0,0,0,0,0,0,0,0,0,0,0,0,0,0,0,0,0,0,0,0,0,0,0,0,0,0,0,0,0,0,0,0,0,0,0,0,0,0,0,0,0,17,18,18,
18,18,19,0,0,0,0,0,0,0,0,0,0,0,0,0,0,0,0,0,0,0,0,0,0,0,0,0,0,0,0,0,0,0,0,0,0,0,0,0,0,0,0,0,0,0,0,0,0,0,0,0,0,0,0,0,0,0,0,0,0,0,0,0,0,1,2,2,2,2,2,3,0,0,0,0,0,0,0,0,0,0,0,0,0,0,0,0,0,0,0,0,0,0,0,0,0,17,18,18,
18,18,19,0,0,0,0,0,0,0,0,0,0,0,0,0,0,0,0,0,0,0,0,0,0,0,0,0,0,0,0,0,0,0,0,0,0,0,0,0,0,0,0,0,0,0,0,0,0,0,0,0,0,0,0,0,0,0,0,0,0,0,0,0,0,33,34,21,18,18,18,36,2,3,0,0,0,0,0,0,0,0,0,0,0,0,0,0,0,0,0,0,0,0,0,0,0,17,18,18,
18,18,19,0,0,0,0,0,0,0,0,0,0,0,0,0,0,0,0,0,0,0,0,0,0,0,0,0,0,0,0,0,0,0,0,0,0,0,0,0,0,0,0,0,0,0,0,0,0,0,0,0,0,0,0,0,0,0,0,0,0,0,0,0,0,0,0,33,34,34,34,34,34,35,0,0,0,0,0,0,0,0,0,0,0,0,0,0,0,0,0,0,0,0,0,0,0,17,18,18,
18,18,19,0,0,0,0,0,0,0,0,0,0,0,0,0,0,0,0,0,0,0,0,0,0,0,0,0,0,0,0,0,0,0,0,0,0,0,0,0,0,0,0,0,0,0,0,0,0,0,0,0,0,0,0,0,0,0,0,0,0,0,0,0,0,0,0,0,0,0,0,0,0,0,0,0,0,0,0,0,0,0,0,0,0,0,0,0,0,0,0,0,0,0,0,0,1,37,18,18,
18,18,36,3,0,0,0,0,0,0,0,0,0,0,0,0,0,0,0,0,0,0,0,0,0,0,0,0,0,0,0,0,0,0,0,0,0,0,1,3,0,0,0,0,0,0,0,0,0,0,0,0,0,0,0,0,0,0,0,0,0,0,0,0,0,0,0,0,0,0,0,0,0,0,0,0,0,0,0,0,0,0,0,0,1,3,0,0,0,0,0,0,0,0,0,0,17,18,18,18,
18,18,18,19,0,0,0,0,0,0,0,0,0,0,0,0,0,0,0,0,0,0,0,0,0,0,0,0,0,0,0,0,0,0,0,0,0,0,17,36,3,0,0,0,0,0,0,0,0,0,0,0,0,0,0,0,0,0,0,0,0,0,0,0,0,0,0,0,0,0,0,0,0,0,0,0,0,0,0,0,0,0,0,0,17,19,0,0,0,0,0,0,0,0,0,1,37,18,18,18,
18,18,18,19,0,0,0,0,0,0,0,0,0,0,0,0,0,0,0,0,0,0,0,0,0,0,0,0,0,0,0,0,0,0,0,0,0,0,17,18,19,0,0,0,0,0,0,0,0,0,0,0,0,0,0,0,0,0,0,0,0,0,0,0,0,0,0,0,0,0,0,0,0,0,0,0,0,0,0,0,0,0,0,0,17,19,0,0,0,0,0,0,0,0,0,17,18,18,18,18,
18,18,18,19,0,0,0,0,0,0,0,0,0,0,0,0,0,0,0,0,0,0,0,0,0,0,0,0,0,0,0,0,0,0,0,0,0,0,17,18,19,0,0,0,0,0,0,0,0,0,0,0,0,0,0,0,0,0,0,0,0,0,0,0,0,0,0,0,0,0,0,0,0,0,0,0,0,0,0,0,0,0,0,0,17,19,0,0,0,0,0,0,0,0,1,37,18,18,18,18,
18,18,18,36,2,2,3,0,0,0,0,0,0,0,0,0,0,0,0,0,0,0,0,0,0,0,0,0,0,0,0,0,0,0,0,0,0,0,17,18,36,3,0,0,0,0,0,0,0,0,0,0,0,0,0,0,0,0,0,0,0,0,0,0,0,0,0,0,0,0,0,0,0,0,0,0,0,0,0,0,0,0,0,0,17,36,3,0,0,0,0,0,0,1,37,18,18,18,18,18,
18,18,18,18,18,18,36,2,3,0,0,0,0,0,0,0,0,0,0,0,0,0,0,0,0,0,0,0,0,0,0,0,0,0,0,0,0,0,17,18,18,19,0,0,0,0,0,0,0,0,0,0,0,0,0,0,0,0,0,1,3,0,0,0,0,0,0,0,0,0,0,0,0,0,0,0,0,0,0,0,0,0,0,1,37,18,19,0,0,0,0,0,1,37,18,18,18,18,18,18,
18,18,18,18,18,18,18,18,36,2,3,0,0,0,0,0,0,0,0,0,0,0,0,0,0,0,0,0,0,0,0,0,0,0,0,0,0,0,17,18,18,19,0,0,0,0,0,0,1,2,2,2,3,0,0,0,0,0,0,17,19,0,0,0,0,0,0,0,0,0,0,0,0,0,0,0,0,0,0,0,0,0,0,17,18,18,36,3,0,0,0,1,37,18,18,18,18,18,18,18,
18,18,18,18,18,18,18,18,18,18,36,2,2,2,2,3,0,0,0,0,0,0,0,0,0,0,0,0,0,0,0,0,0,0,0,0,0,0,17,18,18,19,0,0,0,0,1,2,37,18,20,34,35,0,0,0,0,0,0,17,36,3,0,0,0,0,0,0,0,0,0,0,0,0,0,0,0,0,0,0,0,0,0,17,18,18,18,36,3,0,1,37,18,18,18,18,18,18,18,18,
18,18,18,18,18,18,18,18,18,18,18,18,18,18,18,36,3,0,0,0,0,0,0,0,0,0,0,0,0,0,0,0,0,0,0,0,0,1,37,18,18,19,0,0,0,1,37,18,20,34,35,0,0,0,0,0,0,0,0,17,18,19,0,0,0,0,0,0,0,0,0,0,0,0,0,0,0,0,0,0,0,0,1,37,18,18,18,18,36,2,37,18,18,18,18,18,18,18,18,18,
18,18,18,18,18,18,18,18,18,18,18,18,18,18,18,18,36,2,2,2,2,2,3,0,0,0,0,0,0,0,0,0,0,0,0,0,1,37,18,18,18,36,3,0,0,33,34,34,35,0,0,0,0,0,0,0,0,0,1,37,18,19,0,0,0,0,0,0,0,0,0,0,0,0,0,1,2,2,2,2,2,2,37,18,18,18,18,18,18,18,18,18,18,18,18,18,18,18,18,18,
18,18,18,18,18,18,18,18,18,18,18,18,18,18,18,18,18,18,18,18,18,18,36,2,3,0,0,0,0,0,0,0,0,0,1,2,37,18,18,18,18,18,36,2,3,0,0,0,0,1,2,2,2,2,2,2,2,2,37,18,18,36,2,2,2,2,2,2,2,2,2,2,2,2,2,37,18,18,18,18,18,18,18,18,18,18,18,18,18,18,18,18,18,18,18,18,18,18,18,18,
18,18,18,18,18,18,18,18,18,18,18,18,18,18,18,18,18,18,18,18,18,18,18,18,36,2,2,2,2,2,2,2,2,2,37,18,18,18,18,18,18,18,18,18,36,2,2,2,2,37,18,18,18,18,18,18,18,18,18,18,18,18,18,18,18,18,18,18,18,18,18,18,18,18,18,18,18,18,18,18,18,18,18,18,18,18,18,18,18,18,18,18,18,18,18,18,18,18,18,18,
18,18,18,18,18,18,18,18,18,18,18,18,18,18,18,18,18,18,18,18,18,18,18,18,18,18,18,18,18,18,18,18,18,18,18,18,18,18,18,18,18,18,18,18,18,18,18,18,18,18,18,18,18,18,18,18,18,18,18,18,18,18,18,18,18,18,18,18,18,18,18,18,18,18,18,18,18,18,18,18,18,18,18,18,18,18,18,18,18,18,18,18,18,18,18,18,18,18,18,18,
18,18,18,18,18,18,18,18,18,18,18,18,18,18,18,18,18,18,18,18,18,18,18,18,18,18,18,18,18,18,18,18,18,18,18,18,18,18,18,18,18,18,18,18,18,18,18,18,18,18,18,18,18,18,18,18,18,18,18,18,18,18,18,18,18,18,18,18,18,18,18,18,18,18,18,18,18,18,18,18,18,18,18,18,18,18,18,18,18,18,18,18,18,18,18,18,18,18,18,18
</data>
 </layer>
 <objectgroup id="2" name="Collision">
  <object id="31" x="170" y="1463.33" width="109.333" height="270.667"/>
  <object id="34" x="177.667" y="1363" width="134.333" height="101"/>
  <object id="36" x="313.333" y="1299.33" width="30" height="132"/>
  <object id="37" x="342.667" y="1333.33" width="414" height="64.6667"/>
  <object id="38" x="743.333" y="1339.33" width="240" height="92"/>
  <object id="39" x="982" y="1300.67" width="33.3333" height="98"/>
  <object id="40" x="1016" y="1247.33" width="31.3333" height="119.333"/>
  <object id="41" x="951.333" y="1000.67" width="128.667" height="303.333"/>
  <object id="42" x="1080" y="1126" width="31.3333" height="112.667"/>
  <object id="43" x="1065.33" y="969.333" width="78" height="206.667"/>
  <object id="44" x="1128" y="936" width="111.333" height="176"/>
  <object id="45" x="1192" y="904" width="288.667" height="174.667"/>
  <object id="46" x="1480" y="1036.67" width="74" height="74.6667"/>
  <object id="47" x="1544.67" y="1084.67" width="115.333" height="58.6667"/>
  <object id="48" x="1640" y="1108.67" width="90" height="67.3333"/>
  <object id="49" x="1704.67" y="1126.67" width="72" height="81.3333"/>
  <object id="50" x="1735.33" y="1133.33" width="240.667" height="106"/>
  <object id="51" x="1965" y="1160.5" width="106.5" height="47"/>
  <object id="52" x="1909.5" y="617" width="97" height="543"/>
  <object id="53" x="2006" y="924.5" width="33" height="59"/>
  <object id="54" x="1974.5" y="713" width="97" height="238.5"/>
  <object id="55" x="2070.5" y="872" width="64.5" height="47.5"/>
  <object id="56" x="2115.5" y="846" width="52" height="42"/>
  <object id="57" x="2032" y="808" width="232" height="47"/>
  <object id="58" x="1994" y="776.5" width="109.5" height="33"/>
  <object id="59" x="1928" y="328" width="47.6667" height="309.667"/>
  <object id="60" x="1896" y="361" width="42" height="201"/>
  <object id="61" x="1864.5" y="520.5" width="56.5" height="79.5"/>
  <object id="62" x="1832.5" y="552" width="62.5" height="104.5"/>
  <object id="63" x="1704.5" y="648.5" width="154.5" height="87.5"/>
  <object id="64" x="1672.5" y="712.5" width="75" height="62"/>
  <object id="65" x="1576.5" y="745" width="101" height="54"/>
  <object id="66" x="1448.5" y="776" width="138.5" height="61"/>
  <object id="67" x="1384.5" y="808.5" width="87" height="44"/>
  <object id="68" x="1320.5" y="840" width="105.5" height="52.5"/>
  <object id="69" x="1256" y="872.5" width="120" height="41.5"/>
  <object id="70" x="259" y="1577" width="52.5" height="60"/>
  <object id="71" x="197" y="1608.5" width="178.5" height="334"/>
  <object id="72" x="328.5" y="1672.5" width="175" height="302"/>
  <object id="73" x="473" y="1704.5" width="159" height="80"/>
  <object id="74" x="607.5" y="1737" width="56" height="107"/>
  <object id="75" x="573.5" y="1832.5" width="410" height="142"/>
  <object id="76" x="978.5" y="1864.5" width="141" height="57.5"/>
  <object id="77" x="1096.5" y="1831.5" width="174.5" height="239"/>
  <object id="78" x="1192.5" y="1800.5" width="142.5" height="238"/>
  <object id="79" x="1256.5" y="1768" width="81.5" height="45"/>
  <object id="80" x="1320.5" y="1736" width="142.5" height="271.5"/>
  <object id="81" x="1352.5" y="1704.5" width="80" height="44.5"/>
  <object id="82" x="1416" y="1672" width="55" height="54.5"/>
  <object id="83" x="1449" y="1608.5" width="132.5" height="366.5"/>
  <object id="84" x="1576.5" y="1576" width="176" height="399"/>
  <object id="87" x="1674.5" y="1608.5" width="141" height="271"/>
  <object id="88" x="456.667" y="1949.33" width="142.667" height="57.3333"/>
  <object id="89" x="488" y="1988.67" width="112" height="50.6667"/>
  <object id="90" x="744.667" y="1947.33" width="256.667" height="60.6667"/>
  <object id="91" x="1000.67" y="1956.67" width="138" height="82.6667"/>
  <object id="92" x="1128.67" y="2034.67" width="110.667" height="164.667"/>
  <object id="93" x="1160" y="2184" width="304" height="47.3333"/>
  <object id="94" x="1256" y="2222.67" width="142.667" height="40.6667"/>
  <object id="95" x="1544" y="1969.33" width="79.3333" height="70"/>
  <object id="96" x="1606" y="1952" width="49.3333" height="55.3333"/>
  <object id="97" x="1726.67" y="1862.67" width="56.6667" height="48.6667"/>
  <object id="98" x="1192.5" y="1384" width="174.5" height="80.5"/>
  <object id="99" x="1257.5" y="1352.5" width="142" height="78.5"/>
  <object id="100" x="1288.5" y="1320.5" width="175" height="79"/>
  <object id="101" x="1992.67" y="1737.33" width="174" height="45.3333"/>
  <object id="102" x="2024" y="1776.67" width="73.3333" height="38"/>
  <object id="103" x="2088.67" y="1768.67" width="176" height="78.6667"/>
  <object id="104" x="808" y="2344.5" width="175" height="47"/>
  <object id="105" x="164" y="1920.67" width="52" height="54"/>
  <object id="106" x="123.333" y="1960.67" width="60" height="79.3333"/>
  <object id="107" x="91.3333" y="2036" width="60" height="222"/>
  <object id="108" x="42.6667" y="2248.67" width="236.667" height="46.6667"/>
  <object id="109" x="25.3333" y="2284" width="93.3333" height="330"/>
  <object id="110" x="15.3333" y="2598.67" width="71.3333" height="173.333"/>
  <object id="111" x="17.3333" y="2761.33" width="102.667" height="156.667"/>
  <object id="112" x="74.6667" y="2889.33" width="140.667" height="57.3333"/>
  <object id="113" x="129.333" y="2921.33" width="149.333" height="71.3333"/>
  <object id="114" x="242" y="2953.33" width="101.333" height="62.6667"/>
  <object id="115" x="324.667" y="2984.67" width="179.333" height="59.3333"/>
  <object id="116" x="482" y="3016.67" width="52.6667" height="46"/>
  <object id="117" x="504" y="3048" width="223.333" height="66"/>
  <object id="118" x="690.667" y="3080.67" width="101.333" height="52"/>
  <object id="119" x="788.667" y="3112.67" width="375.333" height="48"/>
  <object id="120" x="1096.67" y="3080.67" width="99.3333" height="57.3333"/>
  <object id="121" x="1161.33" y="3048.67" width="56" height="52"/>
  <object id="122" x="1192" y="3016" width="50.6667" height="50.6667"/>
  <object id="123" x="1224" y="2760.67" width="48" height="306.667"/>
  <object id="124" x="1260.67" y="2792" width="42.6667" height="120.667"/>
  <object id="125" x="1285.33" y="2889.33" width="49.3333" height="195.333"/>
  <object id="126" x="1320" y="3048.67" width="47.3333" height="38.6667"/>
  <object id="127" x="1348.67" y="3080.67" width="83.3333" height="49.3333"/>
  <object id="128" x="1429.33" y="3112" width="159.333" height="43.3333"/>
  <object id="129" x="1448" y="3016.67" width="111.333" height="46"/>
  <object id="130" x="1480.67" y="2984" width="142.667" height="46.6667"/>
  <object id="131" x="1544.67" y="2950.67" width="142.667" height="48"/>
  <object id="132" x="1577.33" y="3080" width="294.667" height="50.6667"/>
  <object id="133" x="1864.67" y="3048.67" width="42" height="54"/>
  <object id="134" x="1896.67" y="2920" width="46" height="170"/>
  <object id="135" x="1924.67" y="2984.67" width="50.6667" height="123.333"/>
  <object id="136" x="1972" y="3080.67" width="456.667" height="46.6667"/>
  <object id="137" x="2408" y="3047.33" width="240" height="66"/>
  <object id="138" x="2632.67" y="3016.67" width="48.6667" height="46"/>
  <object id="139" x="2664" y="2920" width="40.6667" height="114.667"/>
  <object id="140" x="2696" y="2760.67" width="47.3333" height="206"/>
  <object id="141" x="2730" y="2888.67" width="44.6667" height="83.3333"/>
  <object id="142" x="2762" y="2952.67" width="45.3333" height="44"/>
  <object id="143" x="2781.33" y="2985.33" width="58.6667" height="42"/>
  <object id="144" x="2840" y="3016" width="75.3333" height="26.6667"/>
  <object id="145" x="2888" y="2984" width="48.6667" height="44.6667"/>
  <object id="146" x="2920.67" y="2952" width="74" height="56.6667"/>
  <object id="147" x="2953.33" y="2921.33" width="69.3333" height="47.3333"/>
  <object id="148" x="2984" y="2887.33" width="111.333" height="101.333"/>
  <object id="149" x="3016.67" y="2856" width="102.667" height="84.6667"/>
  <object id="150" x="3048.67" y="2792.67" width="102" height="113.333"/>
  <object id="151" x="3080.67" y="2729.33" width="103.333" height="106"/>
  <object id="152" x="3114" y="2545.33" width="78.6667" height="190.667"/>
  <object id="153" x="3080.67" y="2508.67" width="54.6667" height="43.3333"/>
  <object id="154" x="3048" y="2448.67" width="90" height="70.6667"/>
  <object id="155" x="2952.67" y="2408.67" width="134" height="78.6667"/>
  <object id="156" x="360" y="2536.67" width="112.667" height="45.3333"/>
  <object id="157" x="328" y="2568.67" width="175.333" height="47.3333"/>
  <object id="158" x="2089" y="2632" width="207" height="49"/>
  <object id="159" x="2153" y="2664" width="207" height="48"/>
  <object id="160" x="3048.67" y="2344.67" width="82" height="74"/>
  <object id="161" x="3080.67" y="2312.67" width="63.3333" height="46.6667"/>
  <object id="162" x="3112.67" y="2280.67" width="70" height="53.3333"/>
  <object id="163" x="3144.67" y="1860" width="45.3333" height="428"/>
  <object id="164" x="3112" y="1734" width="58.6667" height="145.333"/>
  <object id="165" x="3016.67" y="1704" width="105.333" height="48"/>
  <object id="166" x="2920" y="1640" width="216.667" height="79.3333"/>
  <object id="167" x="3016.67" y="1608.67" width="151.333" height="34.6667"/>
  <object id="168" x="3144" y="1186.67" width="42" height="424.667"/>
  <object id="169" x="2856" y="1192.67" width="80" height="46.6667"/>
  <object id="170" x="2888" y="1160" width="275.333" height="46.6667"/>
  <object id="171" x="2920.67" y="1128" width="226.667" height="43.3333"/>
  <object id="172" x="3016.67" y="1096.67" width="151.333" height="48"/>
  <object id="173" x="3081.33" y="1064.67" width="98" height="53.3333"/>
  <object id="174" x="3112.67" y="1032" width="62.6667" height="37.3333"/>
  <object id="175" x="3146" y="69.3333" width="32.6667" height="989.333"/>
  <object id="176" x="3112" y="296.667" width="46" height="399.333"/>
  <object id="177" x="3078.67" y="392" width="62" height="207.333"/>
  <object id="178" x="2920" y="520.667" width="230.667" height="46.6667"/>
  <object id="179" x="3015.33" y="488.667" width="101.333" height="34.6667"/>
  <object id="180" x="3047.33" y="455.333" width="46" height="36"/>
  <object id="181" x="3111.33" y="66" width="51.3333" height="53.3333"/>
  <object id="182" x="2984" y="40.6667" width="145.333" height="46.6667"/>
  <object id="183" x="64.6667" y="26.6667" width="2974" height="27.3333"/>
  <object id="184" x="2248" y="30" width="655.333" height="58"/>
  <object id="185" x="2440.67" y="48.6667" width="303.333" height="70.6667"/>
  <object id="186" x="2504.67" y="104.667" width="142.667" height="78.6667"/>
  <object id="187" x="2570" y="168.667" width="44.6667" height="78.6667"/>
  <object id="188" x="2535.33" y="154" width="47.3333" height="157.333"/>
  <object id="189" x="1224" y="40.6667" width="175.333" height="47.3333"/>
  <object id="190" x="1256.67" y="71.3333" width="110" height="112"/>
  <object id="191" x="1256" y="171.333" width="48.6667" height="108.667"/>
  <object id="192" x="1288" y="161.333" width="48" height="245.333"/>
  <object id="193" x="2664.67" y="2214.67" width="206.667" height="49.3333"/>
  <object id="194" x="2760.67" y="2184.67" width="142.667" height="46.6667"/>
  <object id="195" x="2856" y="2152" width="143.333" height="47.3333"/>
  <object id="196" x="776.667" y="936" width="174.667" height="122"/>
  <object id="197" x="808" y="872.667" width="39.3333" height="76"/>
  <object id="198" x="840" y="681.333" width="46" height="264"/>
  <object id="199" x="860.667" y="840.667" width="58.6667" height="129.333"/>
  <object id="200" x="744" y="1032" width="41.3333" height="47.3333"/>
  <object id="201" x="712" y="1064.67" width="66" height="50.6667"/>
  <object id="202" x="553.333" y="1096" width="188" height="54.6667"/>
  <object id="203" x="428" y="1129.33" width="169.333" height="50"/>
  <object id="204" x="200.667" y="1096.67" width="239.333" height="88"/>
  <object id="205" x="148.667" y="1064.67" width="98.6667" height="78"/>
  <object id="206" x="118" y="1032.67" width="97.3333" height="87.3333"/>
  <object id="207" x="103.333" y="1000.67" width="78.6667" height="54"/>
  <object id="208" x="42" y="968" width="110" height="68"/>
  <object id="209" x="57.3333" y="872.667" width="62" height="137.333"/>
  <object id="210" x="14" y="808.667" width="73.3333" height="109.333"/>
  <object id="211" x="5" y="402" width="49" height="410"/>
  <object id="212" x="18" y="5" width="70" height="467"/>
  <object id="213" x="81" y="232" width="38" height="175"/>
  <object id="214" x="94" y="297" width="152" height="46"/>
  <object id="215" x="110" y="333" width="72" height="41"/>
  <object id="216" x="232" y="48" width="496" height="39"/>
  <object id="217" x="392" y="78" width="303" height="40"/>
  <object id="218" x="424" y="108" width="239" height="75"/>
  <object id="219" x="456" y="172" width="207" height="139"/>
  <object id="220" x="611" y="302" width="52" height="234"/>
  <object id="221" x="488" y="271" width="74" height="169"/>
  <object id="222" x="521" y="301" width="111" height="298"/>
  <object id="223" x="551" y="569" width="48" height="127"/>
 </objectgroup>
 <objectgroup id="3" name="Enemies">
  <object id="2" template="../../../tiledmaps/templates/lizard.tx" x="1115" y="1827">
   <properties>
    <property name="type" value="lizard"/>
   </properties>
  </object>
  <object id="3" template="../../../tiledmaps/templates/lizard.tx" x="1385" y="1316">
   <properties>
    <property name="type" value="lizard"/>
   </properties>
  </object>
  <object id="4" template="../../../tiledmaps/templates/lizard.tx" x="1684" y="1570">
   <properties>
    <property name="type" value="lizard"/>
   </properties>
  </object>
  <object id="5" template="../../../tiledmaps/templates/lizard.tx" x="2674.67" y="2206.67">
   <properties>
    <property name="type" value="lizard"/>
   </properties>
  </object>
  <object id="6" template="../../../tiledmaps/templates/lizard.tx" x="2922.67" y="2141.33">
   <properties>
    <property name="type" value="lizard"/>
   </properties>
  </object>
  <object id="7" template="../../../tiledmaps/templates/lizard.tx" x="2940" y="1629.33">
   <properties>
    <property name="type" value="lizard"/>
   </properties>
  </object>
  <object id="8" template="../../../tiledmaps/templates/lizard.tx" x="2917.33" y="1125.33">
   <properties>
    <property name="type" value="lizard"/>
   </properties>
  </object>
  <object id="9" template="../../../tiledmaps/templates/lizard.tx" x="2013.33" y="1149.33">
   <properties>
    <property name="type" value="lizard"/>
   </properties>
  </object>
  <object id="10" template="../../../tiledmaps/templates/lizard.tx" x="2125.33" y="792">
   <properties>
    <property name="type" value="lizard"/>
   </properties>
  </object>
  <object id="11" template="../../../tiledmaps/templates/lizard.tx" x="2932" y="508">
   <properties>
    <property name="type" value="lizard"/>
   </properties>
  </object>
  <object id="12" template="../../../tiledmaps/templates/lizard.tx" x="1740" y="638.667">
   <properties>
    <property name="type" value="lizard"/>
   </properties>
  </object>
  <object id="13" template="../../../tiledmaps/templates/lizard.tx" x="985.333" y="985.333">
   <properties>
    <property name="type" value="lizard"/>
   </properties>
  </object>
  <object id="14" template="../../../tiledmaps/templates/lizard.tx" x="1312" y="832">
   <properties>
    <property name="type" value="lizard"/>
   </properties>
  </object>
  <object id="15" template="../../../tiledmaps/templates/lizard.tx" x="630.667" y="1082.67">
   <properties>
    <property name="type" value="lizard"/>
   </properties>
  </object>
  <object id="16" template="../../../tiledmaps/templates/lizard.tx" x="274.667" y="1076">
   <properties>
    <property name="type" value="lizard"/>
   </properties>
  </object>
  <object id="17" template="../../../tiledmaps/templates/lizard.tx" x="174" y="2234">
   <properties>
    <property name="type" value="lizard"/>
   </properties>
  </object>
  <object id="18" template="../../../tiledmaps/templates/lizard.tx" x="386" y="2522">
   <properties>
    <property name="type" value="lizard"/>
   </properties>
  </object>
  <object id="19" template="../../../tiledmaps/templates/lizard.tx" x="888" y="2330">
   <properties>
    <property name="type" value="lizard"/>
   </properties>
  </object>
  <object id="20" template="../../../tiledmaps/templates/lizard.tx" x="140" y="2866">
   <properties>
    <property name="type" value="lizard"/>
   </properties>
  </object>
  <object id="21" template="../../../tiledmaps/templates/lizard.tx" x="386" y="2966">
   <properties>
    <property name="type" value="lizard"/>
   </properties>
  </object>
  <object id="22" template="../../../tiledmaps/templates/lizard.tx" x="604" y="3030">
   <properties>
    <property name="type" value="lizard"/>
   </properties>
  </object>
  <object id="23" template="../../../tiledmaps/templates/lizard.tx" x="998" y="3092">
   <properties>
    <property name="type" value="lizard"/>
   </properties>
  </object>
  <object id="24" template="../../../tiledmaps/templates/lizard.tx" x="1390" y="2170">
   <properties>
    <property name="type" value="lizard"/>
   </properties>
  </object>
  <object id="25" template="../../../tiledmaps/templates/lizard.tx" x="1374" y="3058">
   <properties>
    <property name="type" value="lizard"/>
   </properties>
  </object>
  <object id="26" template="../../../tiledmaps/templates/lizard.tx" x="1780" y="3062">
   <properties>
    <property name="type" value="lizard"/>
   </properties>
  </object>
  <object id="27" template="../../../tiledmaps/templates/lizard.tx" x="2120" y="2616">
   <properties>
    <property name="type" value="lizard"/>
   </properties>
  </object>
  <object id="28" template="../../../tiledmaps/templates/lizard.tx" x="2024" y="3060">
   <properties>
    <property name="type" value="lizard"/>
   </properties>
  </object>
  <object id="29" template="../../../tiledmaps/templates/lizard.tx" x="2432" y="3036">
   <properties>
    <property name="type" value="lizard"/>
   </properties>
  </object>
  <object id="30" template="../../../tiledmaps/templates/lizard.tx" x="2958" y="2388">
   <properties>
    <property name="type" value="lizard"/>
   </properties>
  </object>
 </objectgroup>
 <objectgroup id="4" name="Flags">
  <object id="224" template="../../../tiledmaps/templates/playerspawn.tx" x="505" y="1589"/>
 </objectgroup>
</map>
