<?xml version="1.0" encoding="UTF-8"?>
<map version="1.10" tiledversion="1.11.2" orientation="orthogonal" renderorder="right-down" width="26" height="20" tilewidth="32" tileheight="32" infinite="0" nextlayerid="3" nextobjectid="15">
 <tileset firstgid="1" source="caveTiles.tsx"/>
 <layer id="1" name="Terrain" width="26" height="20">
  <data encoding="csv">
20,34,34,34,34,34,34,34,34,34,34,34,34,34,34,34,34,34,34,34,34,34,34,34,34,21,
19,6,5,5,5,5,4,5,4,4,6,5,5,4,5,5,6,5,5,5,4,5,6,4,5,17,
19,6,4,4,4,4,4,5,4,5,4,6,6,6,5,4,6,5,6,5,6,6,4,6,5,17,
19,4,4,4,4,4,4,4,4,4,4,4,4,4,4,4,4,4,4,4,4,6,4,5,5,17,
36,2,2,2,3,4,4,4,4,4,4,4,4,4,4,4,4,4,4,4,4,4,4,5,5,17,
18,18,20,34,35,4,4,4,4,4,4,4,4,4,4,4,4,4,4,4,4,4,4,4,5,17,
20,34,35,4,4,4,4,4,4,4,4,4,4,4,4,4,4,6,6,6,6,6,6,4,5,17,
19,4,5,4,4,4,4,4,4,4,4,4,4,4,4,4,4,6,6,6,6,6,6,6,4,17,
19,4,4,4,4,4,4,4,4,4,4,4,4,4,4,4,4,4,4,4,4,4,4,6,6,17,
19,5,6,4,4,4,4,4,4,4,4,4,4,4,4,4,4,4,4,4,4,4,4,4,5,17,
19,4,5,4,4,4,4,4,4,4,4,4,4,4,4,4,4,4,5,6,6,6,6,6,5,17,
19,6,5,4,6,5,6,5,6,4,4,4,4,4,4,4,4,4,4,4,4,4,6,4,6,17,
19,5,5,6,4,6,6,4,5,4,4,4,4,4,4,4,5,6,4,1,2,2,2,3,6,17,
36,3,4,4,4,5,5,6,6,6,6,5,4,4,5,5,4,6,6,17,18,18,18,19,4,17,
18,19,6,4,6,5,5,6,6,4,5,4,5,6,4,4,6,6,6,33,34,21,18,19,4,17,
18,36,3,4,5,5,4,4,4,5,6,5,5,5,5,6,6,6,6,4,4,33,34,35,6,17,
18,18,19,6,6,6,4,5,6,4,6,6,6,6,5,5,5,5,6,6,6,4,5,5,6,17,
18,18,36,2,3,6,6,6,5,4,4,4,4,4,4,6,6,5,4,4,6,6,5,4,6,17,
18,18,18,18,36,2,2,2,2,2,2,2,2,2,2,2,2,2,2,2,2,2,2,2,2,37,
18,18,18,18,18,18,18,18,18,18,18,18,18,18,18,18,18,18,18,18,18,18,18,18,18,18
</data>
 </layer>
 <objectgroup id="2" name="Collision">
  <object id="1" x="1" y="584" width="831" height="56"/>
  <object id="2" x="0.666667" y="552.333" width="150.667" height="32"/>
  <object id="3" x="0.333333" y="488.333" width="87.3333" height="63.3333"/>
  <object id="4" x="0.333333" y="424.667" width="55.3333" height="63.3939"/>
  <object id="5" x="0" y="-0.666667" width="24.0606" height="424.667"/>
  <object id="6" x="23.6667" y="136" width="128" height="47.6667"/>
  <object id="7" x="23.4545" y="184" width="64.3636" height="31.6364"/>
  <object id="9" x="24" y="0" width="808" height="23.7917"/>
  <object id="10" x="808.182" y="24.3636" width="23.6364" height="559.455"/>
  <object id="11" x="615.739" y="392.182" width="144.523" height="79.6364"/>
  <object id="12" x="680.091" y="472.182" width="79.9091" height="31.6364"/>
 </objectgroup>
</map>
